src/helpers/heroicons/outline/arrows-pointing-out.svg

<svg xmlns="http://www.w3.org/2000/svg" fill="none" viewBox="0 0 24 24" stroke-width="1.5" stroke="currentColor" aria-hidden="true" data-slot="icon">
  <path stroke-linecap="round" stroke-linejoin="round" d="M3.75 3.75v4.5m0-4.5h4.5m-4.5 0L9 9M3.75 20.25v-4.5m0 4.5h4.5m-4.5 0L9 15M20.25 3.75h-4.5m4.5 0v4.5m0-4.5L15 9m5.25 11.25h-4.5m4.5 0v-4.5m0 4.5L15 15"/>
</svg>

<svg width="24" height="24" viewBox="0 0 24 24" fill="none" xmlns="http://www.w3.org/2000/svg">
<path d="M3.75 3.75V8.25M3.75 3.75H8.25M3.75 3.75L9 9M3.75 20.25V15.75M3.75 20.25H8.25M3.75 20.25L9 15M20.25 3.75L15.75 3.75M20.25 3.75V8.25M20.25 3.75L15 9M20.25 20.25H15.75M20.25 20.25V15.75M20.25 20.25L15 15"  stroke-width="1.5" stroke-linecap="round" stroke-linejoin="round"/>
</svg>
